icons/file_type_edge2.svg

<svg xmlns="http://www.w3.org/2000/svg" viewBox="0 0 512 512"><path d="M41 0h430a41 41 0 0 1 41 41v430a41 41 0 0 1-41 41H41a41 41 0 0 1-41-41V41A41 41 0 0 1 41 0Zm292.085 174.674c-.908-15.974-.972-32.987-.369-50.16H170.8c12.03 21.782 10.844 24.8 12.167 62.274v129.4c-.691 48.1-2.93 56.094-12.167 71.3h165.6c.915-19.388 2.523-40.337 4.795-62.7-13.643 19.912-19.544 30.612-65.278 30.612h-39.465v-83.725h34.3c39.382-.676 45.53 11 53.849 16.966a454.232 454.232 0 0 1 0-65.282c-16.255 14.68-26.684 15.844-53.849 16.6h-34.3V156.6H279.6c25.516.3 40.131 4.474 53.485 18.074Z" style="fill:#d8563a"/></svg>

<svg xmlns="http://www.w3.org/2000/svg" viewBox="0 0 512 512"><title>file_type_edge2</title><path d="M41,0H471a41,41,0,0,1,41,41V471a41,41,0,0,1-41,41H41A41,41,0,0,1,0,471V41A41,41,0,0,1,41,0ZM333.085,174.674c-.908-15.974-.972-32.987-.369-50.16H170.8c12.03,21.782,10.844,24.8,12.167,62.274v129.4c-.691,48.1-2.93,56.094-12.167,71.3H336.4c.915-19.388,2.523-40.337,4.795-62.7C327.552,344.7,321.651,355.4,275.917,355.4H236.452V271.675h34.3c39.382-.676,45.53,11,53.849,16.966a454.232,454.232,0,0,1,0-65.282c-16.255,14.68-26.684,15.844-53.849,16.6h-34.3V156.6H279.6C305.116,156.9,319.731,161.074,333.085,174.674Z" style="fill:#d8563a"/></svg>
